X:1
T:One man went to mow
B:Singing Together, Autumn 1960, BBC Publications
F:http://www.folkinfo.org/songs
M:4/4     %Meter
L:1/8     %
K:G
BB B3/2B/ B4 |B3/2B/ cB BA z2 |AA AA A4 |d3/2d/ dc B G2 z |:
w:One man went to mow, went to mow a mea-dow, One man and his dog, Went to mow a mea-dow.
BB B3/2B/ B4 |B3/2B/ cB BA z2 |AA AA AA A2 ||d3/2d/ dc B G2 z :|
w:Two men went to mow, went to mow a mea-dow, Two men, one man and his dog, Went to mow a mea-dow
